X:612
T: Changqi minge xiang zongli
N: C2130
O: China,Hubei Tianmen
S: I, 364]
R: Xiaodiao, Liuduan chunjing diao]
M: 4/4
L: 1/16
K: Bb
c2bcd2fdc2dcb2g2 | b2cdcbg2f8 |
gbfgb2c2f3dcbg2 | b2fbgfd2c8 |
d2fdc2Bfd8 | f3gc2a2gfg6 |
fgb4c2gbgfd4 | f3dcBcdf8 | B2Bcf2fdcBc6 |
b2bcf2fdc2dcb3g | fgb4c2gbgfd4 |
c2dfd2c2dcb4c2 | b16

@@@ Tune index: 7167
